z_dist/img/icons/crypto/avalanche-AVAX.svg

<svg width="64" height="64" viewBox="0 0 64 64" fill="none" xmlns="http://www.w3.org/2000/svg">
<g clip-path="url(#clip0_235_3312)">
<rect width="64" height="64" rx="4" fill="#E84142"/>
<path d="M43.2882 32.8315C44.3968 30.9165 46.1858 30.9165 47.2944 32.8315L54.1984 44.9512C55.307 46.8661 54.4 48.4283 52.1826 48.4283H38.274C36.0818 48.4283 35.1748 46.8661 36.2582 44.9512L43.2882 32.8315ZM29.9338 9.49921C31.0425 7.58425 32.8063 7.58425 33.9149 9.49921L35.4519 12.2709L39.0803 18.6457C39.9622 20.4598 39.9622 22.6016 39.0803 24.4157L26.9102 45.5055C25.8015 47.2189 23.9622 48.3024 21.9212 48.4283H11.8173C9.59996 48.4283 8.69288 46.8913 9.80154 44.9512L29.9338 9.49921Z" fill="white"/>
</g>
<defs>
<clipPath id="clip0_235_3312">
<rect width="64" height="64" fill="white"/>
</clipPath>
</defs>
</svg>

<svg width="64" height="64" fill="none" xmlns="http://www.w3.org/2000/svg"><g clip-path="url(#clip0_235_3312)"><rect width="64" height="64" rx="4" fill="#E84142"/><path d="M43.288 32.831c1.109-1.915 2.898-1.915 4.006 0l6.904 12.12c1.109 1.915.202 3.477-2.015 3.477H38.274c-2.192 0-3.1-1.562-2.016-3.477l7.03-12.12zM29.934 9.5c1.108-1.915 2.872-1.915 3.98 0l1.538 2.772 3.628 6.375a6.623 6.623 0 010 5.77l-12.17 21.09a6.399 6.399 0 01-4.989 2.922H11.817c-2.217 0-3.124-1.537-2.015-3.477L29.934 9.5z" fill="#fff"/></g><defs><clipPath id="clip0_235_3312"><path fill="#fff" d="M0 0h64v64H0z"/></clipPath></defs></svg>
